!!!OTL: Biandange
!!!ARE: Asia, China,ÿAnhui Shouxian
!! III, 533
!!!SCT: C2044
!!!YEM: Copyright 1995, estate of Helmut Schaffrath.
**kern
*ICvox
*Ivox
*M2/4
*k[b-]
*F:
{2gg
=1
16ff
16dd
16dd
16dd
16cc
16ff
16dd
16dd
=2
8cc
8cc
16a
16cc
8a
=3
16ff
16dd
16dd
16dd
16cc
16dd
16cc
16a
=4
2g}
=5
{16d
16d
16d
16f
4g
=6
8a
16cc
16a
16g
16a
16g
16f
=7
2d}
=8
{8d
8f
8d
8d
=9
8ff
16dd
16ff
16dd
16cc
16a
16cc
=10
4.a
16g
16g
=11
16a
16cc
4.f}
=12
{2r
=13
16ff
16dd
16dd
16dd
16cc
16ff
16dd
16dd
=14
8cc
8cc
16a
16cc
8a
=15
16a
16ff
16dd
16dd
16cc
16dd
16cc
16a
=16
2g}
=17
{16d
16d
16d
16f
4g
=18
8a
16cc
16a
16g
16a
16g
16f
=19
2d}
==
!!!AGN: Shange
!!!AMT: simple duple
!!!AIN: vox
!!!EED: Helmut Schaffrath
!!!EEV: 1.0
*-
